X:1
T:Title
%%score 1 2
L:1/8
Q:1/4=110
M:4/4
K:A
V:1 treble nm="Grand Piano, Soprano"
V:2 bass nm="Choir Pad, Estonia, 87.87 D"
V:1
 [CE]2 [CA]2 [Fd]3 [Ec] | [DF]2 [DB]2 [DB]2 [DA]2 | [DG]2 [DG]2 [DF]3 [DE] | [CF]2 [CE]2 [Ec]4 | %4
w: By~William~A.~Pickell,~1896 * * *||||
 [CE]2 [CA]2 [Fd]3 [Ec] | [DF]2 [Fd]2 [Fc]2 [FB]2 | [EA]2 [^DA]2 [=DA]3 [DG] | [DF]2 [DG]2 [CA]4 | %8
w: ||||
 [^Ec]2 [Ec]2 [Ec]3 [EG] | [FA]3 [FA] [FA]2 [Fc]2 | [F^d]3 [^Dc] [DB][DA][DG][DF] | %11
w: |||
 E2 [CE]2 [DE]4 | [CE]2 [DE]2 [CE]3 [Ec] | [DB]2 [Fd]2 [Fc]2 [Fc]2 | [EA]2 [^DA]2 [=DA]3 [DG] | %15
w: ||||
 [DF]2 [DG]2 [CA]4- | [CA]4 z4 |] %17
w: ||
V:2
 [A,,A,]2 [A,,E,]2 [A,,A,]3 [A,,A,] | [D,A,]2 [D,F,]2 [D,F,]2 [D,F,]2 | %2
 [E,B,]2 [E,B,]2 [E,A,]3 [E,G,] | [A,,A,]2 [A,,A,]2 [A,,A,]4 | [A,,A,]2 [A,,E,]2 [A,,A,]3 [A,,A,] | %5
 [D,A,]2 [B,,B,]2 [C,^A,]2 [D,B,]2 | [E,C]2 [E,C]2 [E,B,]3 [E,B,] | [E,A,]2 [E,B,]2 [A,,A,]4 | %8
 [C,G,]2 [C,G,]2 [C,G,]3 [C,C] | [F,C]3 [F,C] [F,C]2 [F,A,]2 | %10
 [D,A,]3 [B,,B,] [B,,B,][B,,B,][B,,B,][B,,A,] | [E,G,]2 [E,A,]2 [E,B,]4 | %12
 [A,,A,]2 [B,,G,]2 [A,,A,]3 [A,,A,] | [D,F,]2 [B,,B,]2 [C,^A,]2 [D,B,]2 | %14
 [E,C]2 [E,C]2 [E,B,]3 [E,B,] | [E,A,]2 [E,B,]2 [A,,A,]4- | [A,,A,]4 z4 |] %17

